X: 4344
T: PROUDLY AND WIDE. (Fra Diavolo.)
%R: air, march
B: James Kerr "Merry Melodies" v.4 p.36 #344
Z: 2016 John Chambers <jc:trillian.mit.edu>
M: C
L: 1/8
K: D
D2 F>G |\
B2 A2 f2 c>d | B2 A2 B2 E2 |\
B2 E2 c>BG>E |[1 (3CAA (3AAA :|[2 C2 A,2 \
|:\
(3ABA (3GEF | (3DFA d2 (3cdc (3GAB |\
B2 A2 (3ABA (3GEF | (3DFA d>c B2 c>B |\
[1 (3AAA (3AAA :|[2 A2 "_D.C."A,2 |]

%%sep 1 1 500
%%sep 1 1 500

